X: 14823
T: Garden Of Skye, The
R: polka
M: 2/4
K: Amajor
e|A2AB|ce ec|BA cB|A2Ae|f2 fe|fa ge|fe ef|eA ce|
a2 ag|f2 ag|fe cB|c2 cB|A2 AB|ce ec|BA cB|A2Ae||
c3 e|f3 a|e2 ef|ec Bd|c<e ea|f2 fa|ef ec|BA ce|
a2 ag|f2 ag|fe cB|c2 cB|A2 AB|ce ec|BA cB|A2A2||

